X: 472
T:Ice on the Road         
C:Traditional           
O:% origin.
M:4/4      
L:1/8      
Q:1/4=240  
K:Em       
V:1        
"Em"E2 B,E G2 EG|B2GB d^cdB|"D"AFA^cd2cd|"D"B^cdB AGFD|!
"Em"E2 B,E G2 EG|B2GB d^cdB|\
"D"AFA^cd2 (3ABA|1"D"GDFD"Em"E2(3G,B,D:|2"D"GDFD"Em"E2(3DEF||!
|:"G"G2DGB2GB|d2Bdg2d2|"C"c2ed "Bm"BcdB|"Am"cBAG "D"FE (3DEF|!
"G"G2DGB2GB|d2Bdg2d2|\
"C"c2ed "Bm"BcdB|1"D"cBAF"G"G2(3DEF:|2"D"cBAF"G"G2F2|"Em"[B,8E8]||

